X:1
T:Title
%%score { ( 1 3 4 6 ) | ( 2 5 7 ) }
L:1/8
M:4/4
K:D
V:1 treble nm="Grand Piano"
V:3 treble 
V:4 treble 
V:6 treble 
V:2 bass 
V:5 bass 
V:7 bass 
V:1
 z4 z2 z z/[Q:1/4=100] [A,DF]/ | z4 [DF]4 | A>^G [C=G]>[CF] z2 z z/ F/ | z4 [Gc]4 | %4
 [Fe]>[Fd] [FA]>F [A,CE]2 z z/ [A,C=F]/ | z4 [DF]4 | F>E A>B [Ec]3- [Ec]/[Ac]/ | %7
 [^GB]>[FA] [E=G]>F E2 c2 | B4 [A,CA]2 A2 | e2 d2 [Gc]2 [GB]2 | [FA]>[GB] [FA]>[EG] F>A B>F | %11
 G6 z2 | A6 z2 | e2 d2 [Gc]2 [GB]2 | [FA]>[GB] [FA]>[EG] F>A A>A | B2 [Ge]2 d2 [Ec]2 | [Fd]6 z2 | %17
 [DB]3 B [DB]G=cG | [DB]6 [DB]B | [Fd]2 =cB [=CA]2 c2 | [DB]6 z2 | [DB]3 B [DB]G=cG | [DB]6 [DB]B | %23
 d2 AF [FA]2 GE | D6 DD | =c2 A2 B2 AG | A6[K:bass] z2[K:treble] | [Gd]2 [Gc]2 [F=c]2 [=FB]2 | %28
 [F=c]6 [DFB][=CFA] | [B,EG]2 [DFA]2 [DGB]2 [=Fd]2 | [Ee]6 [E=c][EA] | [DG]2 [GB]2 [Fd]2 [FA]2 | %32
 B6 B=c | d2 [DGB]2 [=CG=c]2 [Gd]2 | [Ge]6 [E=c][EA] | G2 FG [DFB]3 [=CDA] | %36
[M:33/32] [B,DG]/4-[B,DG]/4-[B,DG]/4-[B,DG]/4-[B,DG]/4-[B,DG]/4-[B,DG]/4-[B,DG]/4-[B,DG]/4-[B,DG]/4-[B,DG]/4-[B,DG]/4-[B,DG]/4-[B,DG]/4-[B,DG]/4-[B,DG]/4-[B,DG]/4-[B,DG]/4-[B,DG]/4-[B,DG]/4-[B,DG]/-<[B,DG]/ z/4 z/4 z/4 z/4 z/4 z/4 z/4 z/ | %37
[M:1/16] [A,DF]/ |[M:4/4] z4 [DF]3- [DF]3/4 z/4 | (5:4:5A2 ^G/ [C=G]/-[CG]3/2[CF]/ z2 (3:2:2z2 F | %40
 z4 [Gc]3- [Gc]3/4 z/4 | (5:4:5[Fe]2 [Fd]/ [FA]/-[FA]3/2F/ z2 (3:2:2z2 [A,C=F] | %42
 z4 [DF]3- [DF]3/4 z/4 | (7:8:6F-F/4E/ A/4-AB/ [Ec]2- (3:2:2[Ec]2 [Ac] | z4 E2- E/4 z/4 z/ z | %45
 B4- B/4 z/4 z/ z z2 | (3:2:2e3 d3 z4 | z4 (5:4:5F2 A/ B/-B3/2F/ | z4 (5:4:5C2 G/ c/-c3/2B/ | %49
 A4- A-A/4 z/4 z/ z2 | (3:2:2e3 d3 z4 | z4 (5:4:5F2 A/ A/-A3/2A/ | (3:2:2B3 [Ge]3 z4 | %53
[M:8/4] [Fd]6- [Fd]/4 z/4 z/ z z8 |] %54
V:2
 z4 z2 z z/ D,/ | D,2 A,,2 D,2 z z/ D/ | C>C [A,,A,]2 [E,A,]2 z z/ C/ | %3
 [E,A,C]2 [A,,A,]2 [E,A,]2 z z/ G/ | z2 [D,A,]2 z4 | D,2 A,,2 D,2 z z/ D/ | %6
 [E,A,C]>[E,A,C] [F,A,C]>[E,G,E] [A,,A,]3- [A,,A,]/[A,,A,]/ | %7
 [D,A,]>[D,A,] [D,A,]>[D,A,D] [E,A,C]2 [E,A,E]2 | [E,^G,D]4 A,,2 A,2 | %9
 [A,CG]2 [A,B,G]2[K:bass] [A,,A,]2 [A,,A,]2 | [D,A,]>[D,A,] [D,A,]>[D,A,] [D,A,D]2 z2 | %11
 z z/ [A,,A,]/ [A,,A,]>[A,,A,] [A,,A,]2 z2 | z z/ [D,A,]/ [D,A,]>[D,A,] .[D,A,]2 A,2 | %13
 [A,CG]2 [A,B,G]2[K:bass] [A,,A,]2 [A,,A,]2 | %14
 [D,A,]>[D,A,] [D,A,]>[D,A,] [D,A,D]>[F,A,D] [F,A,D]>[F,A,D] | [G,D]2 [E,B,]2 [A,F]2 [A,,A,]2 | %16
 [D,A,]6 z2 | z2 z D z B,E^D | z4 z2 G,2 | z2 ED z2 E2 | G,D,E,F, G,2 D,B,, | z2 z D z B,E^D | %22
 z4 z2 G,2[K:treble] | F3 D[K:bass] z2 E[G,C] | [D,F,]D,A,F, D,2 D,D, | %25
 [D,A,D]2 [D,F,D]2 [D,G,D]2 [D,E,B,]2 | [F,D]6 D,D, | [D,B,]2 [D,^A,]2 [D,=A,]2 [D,^G,]2 | %28
 A,-[D,A,-][D,A,-][D,A,-] [D,A,]2 D,D, | E,2 D,2 G,2 [G,B,]2 | [=C,=C]6 [C,A,][C,C] | %31
 [D,B,]2 [D,D]2 [D,A,]2 [D,D]2 | [G,DG]6 [G,DG][A,DF] | [B,DG]2 G,[K:bass]=F, E,2 [D,B,]2 | %34
 [=C,=C]6 [C,A,][C,C] | z2 [D,D]2 z4 | %36
[M:33/32] G,,/4-G,,/4-G,,/4-G,,/4-G,,/4-G,,/4-G,,/4-G,,/4-G,,/4-G,,/4-G,,/4-G,,/4-G,,/4-G,,/4-G,,/4-G,,/4-G,,/4-G,,/4-G,,/4-G,,/4-G,,/-<G,,/ z/4 z/4 z/4 z/4 z/4 z/4 z/4 z/ | %37
[M:1/16] D,/ |[M:4/4] z4 (5:4:5D,2- D,/ A,,/-A,,3/2D/ | %39
 (5:4:4[E,A,C]2 C/ [A,,A,]/- [A,,A,]2 z2 (3:2:2z2 C | z4 (5:4:5[E,A,]2- [E,A,]/ A,,/-A,,3/2G/ | %41
 A,2- A,/4 z/4 z/ z z4 | z4 (5:4:5D,2- D,/ A,,/-A,,3/2D/ | %43
 (7:8:6[E,A,C]-[E,A,C]/4[E,A,C]/ [F,A,C]/4-[F,A,C][E,G,E]/ [A,,A,]2- (3:2:2[A,,A,]2 [A,,A,] | %44
 z4 C2- C/4 z/4 z/ z | [E,^G,D]4- [E,G,D]/4 z/4 z/ z z2 | (3:2:2[A,CG]3 [A,B,G]3[K:bass] z4 | %47
 (5:4:5[D,A,]2 [D,A,]/ [D,A,]/-[D,A,]3/2[D,A,]/ [D,A,D]3/2-[D,A,D]/4 z/4 z2 | %48
 z2 (3:2:2[A,,A,]2 [A,,A,] [A,,A,]3/2-[A,,A,]/4 z/4 z2 | %49
 z2 (3:2:2[D,A,]2 [D,A,] [D,A,]-[D,A,]/4 z/4 z/ A,2 | (3:2:2[A,CG]3 [A,B,G]3[K:bass] z4 | %51
 z4 (5:4:5[D,A,D]2 [F,A,D]/ [F,A,D]/-[F,A,D]3/2[F,A,D]/ | (3:2:2[G,D]3 [E,B,]3 z4 | %53
[M:8/4] [D,A,]6- [D,A,]/4 z/4 z/ z z8 |] %54
V:3
 x8 | [A,DF]2 [A,DF]2 A,2 z z/ F/ | z4 [CE]4 | G2 [CG]2 z2 z z/ c/ | x8 | %5
 [A,DF]2 [A,DF]2 A,2 z z/ F/ | x8 | x8 | x8 | x8 | x8 | z z/ C/ C>C C>G c>B | z z/ F/ F>F .F2 A2 | %13
 x8 | x8 | x8 | x8 | x8 | x8 | x8 | x8 | x8 | x8 | z4 A,4 | x8 | x8 | %26
 z[K:bass] D,D,D, D,2 D[K:treble]D | x8 | x8 | x8 | x8 | x8 | x8 | x8 | x8 | x8 |[M:33/32] x33/4 | %37
[M:1/16] x/ |[M:4/4] (3:2:2[A,DF]3 [A,DF]3 z2 (3:2:2z2 F | z4 [CE]3- [CE]3/4 z/4 | %40
 (3:2:2G3 [CG]3 z2 (3:2:2z2 c | z4 [A,CE]2- [A,CE]/4 z/4 z/ z | %42
 (3:2:2[A,DF]3 [A,DF]3 z2 (3:2:2z2 F | x8 | (5:4:5[^GB]2 [FA]/ [E=G]/-[EG]3/2F/ z2 c2- | %45
 c3/4 z/4 z z2 (3:2:2[A,CA]3 A3 | z4 (3:2:2[Gc]3 [GB]3 | (5:4:5[FA]2 [GB]/ [FA]/-[FA]3/2[EG]/ z4 | %48
 G4- G3/2-G/4 z/4 z2 | (5:4:5z2 F/ F/-F3/2F/ z2 A2 | z4 (3:2:2[Gc]3 [GB]3 | %51
 (5:4:5[FA]2 [GB]/ [FA]/-[FA]3/2[EG]/ z4 | z4 (3:2:2d3 [Ec]3 |[M:8/4] x16 |] %54
V:4
 x8 | z4 z2 A,2 | z4 z2 A,2 | z4 z2 A,2 | x8 | z4 z2 A,2 | x8 | x8 | x8 | x8 | x8 | x8 | x8 | x8 | %14
 x8 | x8 | x8 | x8 | x8 | x8 | x8 | x8 | x8 | x8 | x8 | x8 | x[K:bass] x6[K:treble] x | x8 | x8 | %29
 x8 | x8 | x8 | x8 | x8 | x8 | x8 |[M:33/32] x33/4 |[M:1/16] x/ |[M:4/4] z4 A,2- A,/4 z/4 z/ z | %39
 z4 z2 A,2 | z4 z2 A,2 | x8 | z4 A,2- A,/4 z/4 z/ z | x8 | x8 | x8 | x8 | x8 | %48
 (5:4:5z2 C/ C/-C3/2C/ z4 | z4 F-F/4 z/4 z/ z2 | x8 | x8 | x8 |[M:8/4] x16 |] %54
V:5
 x8 | z4 z2 A,,2 | [E,A,]2 z2 z2 A,,2 | z4 z2 A,,2 | [D,A,]2 z z/ D/ A,,2 z z/ A,,/ | z4 z2 A,,2 | %6
 x8 | x8 | x8 | x4[K:bass] x4 | x8 | x8 | x8 | x4[K:bass] x4 | x8 | x8 | x8 | G,,4 G,4 | %18
 G,,B,,D,G, G,,2 z G | D,4 D,4 | x8 | G,,4 G,4 | G,,B,,D,G, G,,2 z[K:treble] G | A,4[K:bass] A,,4 | %24
 x8 | x8 | .D,2 z2 z4 | x8 | .D,2 z2 z4 | x8 | x8 | x8 | x8 | x3[K:bass] x5 | x8 | %35
 [D,B,D]2 A,B, D,3 D, |[M:33/32] x33/4 |[M:1/16] x/ |[M:4/4] (3:2:2D,3 A,,3 z4 | %39
 z4 [E,A,]2- [E,A,]/4 z/4 z/ z | (3:2:2[E,A,C]3 [A,,A,]3 z4 | %41
 (7:8:8D,3/2[D,A,]3/2D/ A,,/-A,,3/2 z/ z/ A,,/ | (3:2:2D,3 A,,3 z4 | x8 | %44
 (5:4:5[D,A,]2 [D,A,]/ [D,A,]/-[D,A,]3/2[D,A,D]/ [E,A,]2 [E,A,E]2- | %45
 [E,A,E]3/4 z/4 z z2 (3:2:2A,,3 A,3 | z4[K:bass] (3:2:2[A,,A,]3 [A,,A,]3 | x8 | %48
 z z/ [A,,A,]/- [A,,A,]/4 z/4 z/ z z4 | z z/ [D,A,]/- [D,A,]/4 z/4 z/ z z4 | %50
 z4[K:bass] (3:2:2[A,,A,]3 [A,,A,]3 | (5:4:5[D,A,]2 [D,A,]/ [D,A,]/-[D,A,]3/2[D,A,]/ z4 | %52
 z4 (3:2:2[A,F]3 [A,,A,]3 |[M:8/4] x16 |] %54
V:6
 x8 | x8 | x8 | x8 | x8 | x8 | x8 | x8 | x8 | x8 | x8 | x8 | x8 | x8 | x8 | x8 | x8 | x8 | x8 | %19
 x8 | x8 | x8 | x8 | x8 | x8 | x8 | x[K:bass] x6[K:treble] x | x8 | x8 | x8 | x8 | x8 | x8 | x8 | %34
 x8 | x8 |[M:33/32] x33/4 |[M:1/16] x/ |[M:4/4] z4 z2 A,2 | x8 | x8 | x8 | z4 z2 A,2 | x8 | x8 | %45
 x8 | x8 | x8 | x8 | x8 | x8 | x8 | x8 |[M:8/4] x16 |] %54
V:7
 x8 | x8 | x8 | x8 | x8 | x8 | x8 | x8 | x8 | x4[K:bass] x4 | x8 | x8 | x8 | x4[K:bass] x4 | x8 | %15
 x8 | x8 | x8 | x8 | x8 | x8 | x8 | x7[K:treble] x | x4[K:bass] x4 | x8 | x8 | x8 | x8 | x8 | x8 | %30
 x8 | x8 | x8 | x3[K:bass] x5 | x8 | x8 |[M:33/32] x33/4 |[M:1/16] x/ |[M:4/4] x8 | z4 z2 A,,2 | %40
 x8 | x8 | x8 | x8 | x8 | x8 | x4[K:bass] x4 | x8 | x8 | x8 | x4[K:bass] x4 | x8 | x8 | %53
[M:8/4] x16 |] %54

